X: 1
T: String Quartet in G Major opus 17 no 5 mvt 4
C: Franz Joseph Haydn
%%abc-version 2.0
%%abcx-abcm2ps-target-version 5.9.1 (29 Sep 2008)
%%abc-creator hum2abc beta
%%abcx-conversion-date 2021/02/14 14:38:31
%%abc-copyright Copyright (c) 1994, 2000 Center for Computer Assisted Research in the Humanities
%%abc-edited-by Frances Bennion
%%abcx-initial-encoding-date 1997/04/15
%%gracespace 0 6 6
%%humdrum-veritas 3535791822
%%humdrum-veritas-data 3673168375
%%linebreak <none>
%%barnumbers 0
L: 1/8
M: 2/4
N: Derived from op17n5-04.krn
Q: "Finale: Presto" 1/4=152
%%staves [1 2 3 4]
V: 1
V: 2
V: 3 clef=alto
V: 4 clef=bass
K: G
[V:1]z3 d [I:setbarnb1]|
[V:2]z3 B |
[V:3]z3 z |
[V:4]z3 z |
[V:1]cB ed |
[V:2]AG cB |
[V:3]z4 |
[V:4]z4 |
[V:1]d2 zg |
[V:2]B2 ze |
[V:3]zF/G/ G,2 |
[V:4]G,G, G,G, |
[V:1]gf fe |
[V:2]ed dc |
[V:3]z4 |
[V:4]G,G, G,G, |
[V:1]ed zd |
[V:2]cB zB |
[V:3]zF/G/ G,2 |
[V:4]G,G, G,G, |
[V:1]cB ed |
[V:2]AG cB |
[V:3]z4 |
[V:4]G,G, G,G, |
[V:1]d2 zc |
[V:2]B2 zE |
[V:3]zF/G/ G,2 |
[V:4]G,G, G,G, |
[V:1]cB BA |
[V:2]ED DC |
[V:3]z4 |
[V:4]G,G, G,G, |
[V:1]AG zG |
[V:2]CB, zD |
[V:3]zF/G/ G,B, |
[V:4]G,2 z2 |
[V:1]GF FA |
[V:2]DC CE |
[V:3]B,A, A,C |
[V:4]z4 |
[V:1]AG zG |
[V:2]ED zG |
[V:3]CB, zG |
[V:4]z3 G, |
[V:1]cB/c/ dc |
[V:2]AG/A/ BA |
[V:3]DD DD |
[V:4]F,F, F,F, |
[V:1]c2 BG |
[V:2]A2 GD |
[V:3]D2 zB, |
[V:4]G,G,, G,,2 |
[V:1]GF FA |
[V:2]DC CE |
[V:3]B,A, A,C |
[V:4]z4 |
[V:1]AG zc |
[V:2]ED z2 |
[V:3]CB, z2 |
[V:4]z4 |
[V:1]ac cB/c/ |
[V:2][A4D4] |
[V:3]D4- |
[V:4]F,F, F,F, |
[V:1]b/a/g/f/ g/f/e/d/ |
[V:2]B2 d2 |
[V:3]D2 B,2 |
[V:4]G,2 B,2 |
[V:1]e/d/c/B/ c/B/A/G/ |
[V:2]e2 z2 |
[V:3]C2 z2 |
[V:4]C2 z2 |
[V:1]Ac2 F |
[V:2]z2 [A,2F2] |
[V:3]z2 C2 |
[V:4]z2 D,2 |
[V:1]G2 z2 |
[V:2][G2B,2] zD |
[V:3]B,2 zB, |
[V:4]G,2 z2 |
[V:1]g4- |
[V:2]CB, ED |
[V:3]A,G, CB, |
[V:4]z4 |
[V:1]g4- |
[V:2]D3 D |
[V:3]B,2 zB, |
[V:4]zF,/G,/ G,,2 |
[V:1]g4- |
[V:2]ED G=F |
[V:3]CB, ED |
[V:4]z4 |
[V:1]g4- |
[V:2]E3 E |
[V:3]C2 zC |
[V:4]zF,/G,/ G,,2 |
[V:1]g4- |
[V:2]GE DC |
[V:3]EC B,A, |
[V:4]z4 |
[V:1]g3 b |
[V:2]D2 B2 |
[V:3]B,2 zG/F/ |
[V:4]zF,/G,/ G,,G, |
[V:1]dc ac |
[V:2]BA cA |
[V:3]E2 D2 |
[V:4]A,2 F,2 |
[V:1]cB zg |
[V:2]AG zD |
[V:3]D2 G,2 |
[V:4]G,2 B,,2 |
[V:1]BA eG |
[V:2]E3 B, |
[V:3]G,3 ^C |
[V:4]C,3 ^C, |
[V:1]GF zA |
[V:2]B,A, z2 |
[V:3]DD, D,2 |
[V:4]D,D,, D,,2 |
[V:1]d4 |
[V:2]AA AA |
[V:3]FF FF |
[V:4]D,D, D,D, |
[V:1]Df' e'd' |
[V:2]AA AA |
[V:3]FF FF |
[V:4]D,D, D,D, |
[V:1]d'^c' c'2- |
[V:2]AA AA |
[V:3]GG GG |
[V:4]E,E, E,E, |
[V:1]c'2 ^c'/d'/e'/f'/ |
[V:2]AA AA |
[V:3]GG GF |
[V:4]E,E, E,D, |
[V:1]g'2 e'3/^c'/ |
[V:2]AA AA |
[V:3]EE EE |
[V:4]^C,C, C,C, |
[V:1]a2 g3/f//g// |
[V:2]AA AA |
[V:3]EE EE |
[V:4]^C,C, C,C, |
[V:1]f2 za |
[V:2]A2 z2 |
[V:3]D2 z2 |
[V:4]D,D D,2 |
[V:1]a'a' a'a' |
[V:2]z3 A |
[V:3]z3 d |
[V:4]z3 F, |
[V:1]a'b zb |
[V:2]Bb bb |
[V:3]d4 |
[V:4]G,G GG |
[V:1]g'g' g'g' |
[V:2]gG zG |
[V:3]e4 |
[V:4]EE, zE, |
[V:1]g'a za |
[V:2]Aa aa |
[V:3]^c4 |
[V:4]F,F FF |
[V:1]f'f' f'f' |
[V:2]fF zF |
[V:3]d4 |
[V:4]DD, zD, |
[V:1]f'g zg |
[V:2]Gg gg |
[V:3]B4 |
[V:4]E,E EE |
[V:1]e'e' e'g |
[V:2]eE ze |
[V:3]^c2 A2 |
[V:4]^C^C, zC |
[V:1]f/d'/f'/d'/ f'/d'/f'/d'/ |
[V:2][fd][f2d2] [f-d] |
[V:3]AA AA |
[V:4]DD DD |
[V:1]f/d'/f'/d'/ f'/d'/f'/d'/ |
[V:2][fd][d2f2] [d-f] |
[V:3]AA AA |
[V:4]DD DD |
[V:1]=f/d'/=f'/d'/ f'/d'/f'/d'/ |
[V:2][df][=f2d2] [f-d] |
[V:3]AA AA |
[V:4]DD DD |
[V:1]=f/d'/=f'/d'/ f'/d'/f'/d'/ |
[V:2][=fd][f2d2] [df] |
[V:3]AA AA |
[V:4]DD DD |
[V:1]=f'd'2 _b- |
[V:2][d4=f4] |
[V:3]^GG GG |
[V:4]_B,B, B,B, |
[V:1]ba2 ^g |
[V:2]D4 |
[V:3]^G2 D2 |
[V:4]_B,B, B,B, |
[V:1]aA AA |
[V:2]^CC CC |
[V:3]EE EE |
[V:4]A,A,, A,,A,, |
[V:1]A3 A |
[V:2]^C3 C |
[V:3]EA, A,A, |
[V:4]A,,2 z2 |
[V:1]BA ^cB |
[V:2]D^C ED |
[V:3]A,4- |
[V:4]z4 |
[V:1]d^c ed |
[V:2]FE GF |
[V:3]A,4- |
[V:4]z4 |
[V:1]fe gg |
[V:2]d^c ee |
[V:3]A,2 z2 |
[V:4]z4 |
[V:1]g3 e |
[V:2]e3 A |
[V:3]z^C DE |
[V:4]zA, B,^C |
[V:1]f/d'/d/b/ B/g/G/e/ |
[V:2]A2 z2 |
[V:3]D2 z2 |
[V:4]D2 z2 |
[V:1]A2 e2 |
[V:2]dd ^cc |
[V:3]FF GG |
[V:4]A,A, A,A, |
[V:1]f/d'/d/b/ B/g/G/e/ |
[V:2]d2 z2 |
[V:3]F2 z2 |
[V:4]D,2 z2 |
[V:1]A2 e2 |
[V:2]dd ^cc |
[V:3]FF GG |
[V:4]A,A, A,A, |
[V:1]d2 zA |
[V:2]d2 zF |
[V:3]FD, D,D, |
[V:4]D,D, D,D, |
[V:1]GF BA |
[V:2]ED GF |
[V:3]D,D, D,D, |
[V:4]D,D, D,D, |
[V:1]A2 za |
[V:2]F2 zf |
[V:3]D,2 z2 |
[V:4]D,2 z2 |
[V:1]gf ba |
[V:2]ed gf |
[V:3]d4- |
[V:4]z4 |
[V:1]a2 zd' |
[V:2]f2 zb |
[V:3]d4- |
[V:4]z^C/D/ D,2 |
[V:1]d'^c' c'b |
[V:2]ba ag |
[V:3]d4- |
[V:4]z4 |
[V:1]ba za |
[V:2]gf zf |
[V:3]d4- |
[V:4]z^C/D/ D,2 |
[V:1]gf d'c' |
[V:2]ed ba |
[V:3]d4- |
[V:4]z4 |
[V:1]c'2 za |
[V:2]a2 zf |
[V:3]d4- |
[V:4]z^C/D/ D,2 |
[V:1]ba d'c' |
[V:2]gf ba |
[V:3]d4 |
[V:4]z4 |
[V:1]b2 zb |
[V:2]g2 zg |
[V:3]G2 zG |
[V:4]zF,/G,/ G,,2 |
[V:1]d'2 z=f |
[V:2]=f2 zd |
[V:3]B2 zB |
[V:4]zF,/G,/ G,,2 |
[V:1]e2 zd |
[V:2]c2 zB |
[V:3]c2 zB |
[V:4]zB,/C/ C,2 |
[V:1]b2 zd |
[V:2]^G2 zB |
[V:3]d2 z^G |
[V:4]z^D,/E,/ E,,2 |
[V:1]c2 ze |
[V:2]A2 zc |
[V:3]A2 zA |
[V:4]z^G,/A,/ A,,2 |
[V:1]c'2 ze |
[V:2]e2 zG |
[V:3]A,2 z^A, |
[V:4]z^G,/A,/ A,,2 |
[V:1]^d2 zB |
[V:2]F2 z2 |
[V:3]B,2 z2 |
[V:4]z^A,/B,/ B,,2 |
[V:1]bb bb |
[V:2]z3 B, |
[V:3]z3 G, |
[V:4]z4 |
[V:1]bc zc |
[V:2]Cc cc |
[V:3]A,A AA |
[V:4]z4 |
[V:1]aa aa |
[V:2]AA, zA, |
[V:3]FF, zF, |
[V:4]z4 |
[V:1]aB zB |
[V:2]B,B BB |
[V:3]G,G GG |
[V:4]z4 |
[V:1]gg gg |
[V:2]GG, zG, |
[V:3]EE, zE, |
[V:4]z4 |
[V:1]gA zA |
[V:2]A,A AA |
[V:3]F,F FF |
[V:4]z4 |
[V:1]ff fA |
[V:2]Ff zF |
[V:3]^D^D, zD |
[V:4]z4 |
[V:1]G/e/g/e/ g/e/g/e/ |
[V:2]GB BB |
[V:3]EE EE |
[V:4]E,E, E,E, |
[V:1]B/e/^g/e/ g/e/g/e/ |
[V:2]BB BB |
[V:3]EE EE |
[V:4]D,D, D,D, |
[V:1]A/e/a/e/ a/e/a/e/ |
[V:2]AA AA |
[V:3]EE EE |
[V:4]C,C, C,C, |
[V:1]A/d/f/d/ f/d/f/d/ |
[V:2]AA AA |
[V:3]DD DD |
[V:4]CC CC |
[V:1]B/d/g/d/ g/d/g/d/ |
[V:2]DD DD |
[V:3]DD DD |
[V:4]B,B, B,B, |
[V:1]D/f/a/f/ a/f/a/f/ |
[V:2]DD DD |
[V:3]cc cc |
[V:4]F,F, F,F, |
[V:1]D/g/b/g/ b/g/b/g/ |
[V:2]DD DD |
[V:3]BB BB |
[V:4]G,G, G,G, |
[V:1]D/e/^c'/e/ c'/e/c'/e/ |
[V:2]GG GG |
[V:3]EE EE |
[V:4]E,E, E,E, |
[V:1]d'2 D3/D/ |
[V:2]F2 D3/D/ |
[V:3]D2 D3/D/ |
[V:4]D,2 D,3/D,/ |
[V:1]D2 zd |
[V:2]D2 zB |
[V:3]D2 z2 |
[V:4]D,2 z2 |
[V:1]cB ed |
[V:2]AG cB |
[V:3]z4 |
[V:4]z4 |
[V:1]d2 zg |
[V:2]B2 ze |
[V:3]zF/G/ G,2 |
[V:4]G,G, G,G, |
[V:1]gf fe |
[V:2]ed dc |
[V:3]z4 |
[V:4]G,G, G,G, |
[V:1]ed zd |
[V:2]cB zB |
[V:3]zF/G/ G,2 |
[V:4]G,G, G,G, |
[V:1]cB ed |
[V:2]AG cB |
[V:3]z4 |
[V:4]G,G, G,G, |
[V:1]d2 zc |
[V:2]B2 zE |
[V:3]zF/G/ G,2 |
[V:4]G,G, G,G, |
[V:1]cB BA |
[V:2]ED DC |
[V:3]z4 |
[V:4]G,G, G,G, |
[V:1]AG zG |
[V:2]CB, zD |
[V:3]zF/G/ G,B, |
[V:4]G,2 z2 |
[V:1]GF FA |
[V:2]DC CE |
[V:3]B,A, A,C |
[V:4]z4 |
[V:1]AG zB |
[V:2]ED zG |
[V:3]CB, z2 |
[V:4]z4 |
[V:1]BA Ac |
[V:2]GF FA |
[V:3]z4 |
[V:4]z4 |
[V:1]cB zd |
[V:2]AG z2 |
[V:3]z4 |
[V:4]z4 |
[V:1]d'd' d'd' |
[V:2]z3 D |
[V:3]z3 G |
[V:4]z3 B,, |
[V:1]d'e ze |
[V:2]Ee ee |
[V:3]G4 |
[V:4]C,C CC |
[V:1]c'c' c'c' |
[V:2]cC zC |
[V:3]A4 |
[V:4]A,A,, zA,, |
[V:1]c'd zd |
[V:2]Dd dd |
[V:3]F4 |
[V:4]B,,B, B,B, |
[V:1]bb bb |
[V:2]BB, zB, |
[V:3]G4 |
[V:4]G,G,, zG,, |
[V:1]bc zc |
[V:2]Cc cc |
[V:3]E4 |
[V:4]A,,A, A,A, |
[V:1]aa ac |
[V:2]AA, zA |
[V:3]F2 D2 |
[V:4]F,F,, zF, |
[V:1]B/g/b/g/ b/g/b/g/ |
[V:2][BG][B2G2] [G-B] |
[V:3]DD DD |
[V:4]G,G, G,G, |
[V:1]B/g/b/g/ b/g/b/g/ |
[V:2][GB][G2B2] [B-G] |
[V:3]DD DD |
[V:4]G,G, G,G, |
[V:1]_B/g/_b/g/ b/g/b/g/ |
[V:2][GB][_B2G2] [B-G] |
[V:3]DD DD |
[V:4]G,G, G,G, |
[V:1]_B/g/_b/g/ b/g/b/g/ |
[V:2][_BG][B2G2] [BG] |
[V:3]DD DD |
[V:4]G,G, G,G, |
[V:1]_bg2 _e- |
[V:2][_B4G4] |
[V:3]^CC CC |
[V:4]_E,E, E,E, |
[V:1]ed2 ^c |
[V:2]G4 |
[V:3]^C2 G,2 |
[V:4]_E,E, E,E, |
[V:1]dD DD |
[V:2]FD DD |
[V:3]A,F, F,F, |
[V:4]D,D,, D,,D,, |
[V:1]D3 D |
[V:2]D4- |
[V:3]F,3 F, |
[V:4]D,,2 z2 |
[V:1]ED FE |
[V:2]D4- |
[V:3]G,F, A,G, |
[V:4]z4 |
[V:1]GF AG |
[V:2]D4- |
[V:3]B,A, CB, |
[V:4]z4 |
[V:1]BA cc |
[V:2]D2 AA |
[V:3]GF z2 |
[V:4]z4 |
[V:1]c3 A |
[V:2]A3 D |
[V:3]zF, G,A, |
[V:4]zD, E,F, |
[V:1]B/g/G/e/ E/c/C/A/ |
[V:2]D2 z2 |
[V:3]G,2 z2 |
[V:4]G,2 z2 |
[V:1]D2 A2 |
[V:2]GG FF |
[V:3]B,B, CC |
[V:4]D,D, D,D, |
[V:1]B/g/G/e/ E/c/C/A/ |
[V:2]G2 z2 |
[V:3]B,2 z2 |
[V:4]G,2 z2 |
[V:1]D2 A2 |
[V:2]GG FF |
[V:3]B,B, CC |
[V:4]D,D, D,D, |
[V:1]G2 zd |
[V:2]G2 zB |
[V:3]B,2 z2 |
[V:4]G,,G, z2 |
[V:1]cB ed |
[V:2]AG cB |
[V:3]z4 |
[V:4]z4 |
[V:1]d2 zB |
[V:2]B2 zD |
[V:3]zF/G/ G,2 |
[V:4]zF,/G,/ G,,2 |
[V:1]AG cB |
[V:2]CB, ED |
[V:3]z4 |
[V:4]z4 |
[V:1]B2 zD |
[V:2]D2 zB, |
[V:3]zF/G/ G,2 |
[V:4]zF,/G,/ G,,2 |
[V:1]CB, ED |
[V:2]A,G, CB, |
[V:3]z4 |
[V:4]z4 |
[V:1]D2 z2 |]
[V:2]B,2 z2 |]
[V:3]G,2 z2 |]
[V:4]G,,2 z2 |]

